img/icon-twitter-white.svg

<svg width="128" height="128" viewBox="0 0 128 128" fill="none" xmlns="http://www.w3.org/2000/svg">
<path fill-rule="evenodd" clip-rule="evenodd" d="M111.457 38.8869C113.025 74.5324 87.2935 114.229 41.8393 114.229C27.994 114.229 15.1936 110.043 4.35254 102.887C17.2835 104.507 30.3451 100.727 40.6637 92.3552C29.9532 92.0852 20.9408 84.794 17.806 74.8025C21.5938 75.6126 25.3817 75.3426 28.9083 74.3974C17.1529 71.967 9.05473 61.0303 9.31596 49.2835C12.5814 51.1738 16.3692 52.2539 20.4183 52.389C9.57719 44.8278 6.44239 29.9755 12.8426 18.6337C24.9898 33.8911 43.0148 44.0177 63.2602 45.0978C59.7336 29.3004 71.3584 14.043 87.1629 14.043C94.2162 14.043 100.616 17.1485 105.057 22.0092C110.674 20.929 115.898 18.7687 120.601 15.7982C118.772 21.7392 114.853 26.735 109.89 29.8404C114.853 29.1653 119.556 27.8151 123.997 25.7898C120.339 30.7856 116.16 35.2413 111.457 38.8869Z" fill="white"/>
</svg>

<svg width="128" height="128" fill="none" xmlns="http://www.w3.org/2000/svg"><path fill-rule="evenodd" clip-rule="evenodd" d="M111.457 38.887c1.568 35.645-24.163 75.342-69.618 75.342-13.845 0-26.645-4.186-37.486-11.342 12.93 1.62 25.992-2.16 36.31-10.532-10.71-.27-19.722-7.561-22.857-17.553 3.788.81 7.576.54 11.102-.405C17.153 71.967 9.055 61.03 9.316 49.283c3.265 1.89 7.053 2.97 11.102 3.106-10.84-7.561-13.976-22.414-7.575-33.755C24.99 33.89 43.015 44.018 63.26 45.098 59.734 29.3 71.358 14.043 87.163 14.043c7.053 0 13.453 3.105 17.894 7.966 5.617-1.08 10.841-3.24 15.544-6.21-1.829 5.94-5.748 10.936-10.711 14.041 4.963-.675 9.666-2.025 14.107-4.05-3.658 4.996-7.837 9.451-12.54 13.097z" fill="#fff"/></svg>
